X:1
T:Title
%%score { 1 | 2 }
L:1/8
M:4/4
K:G
V:1 treble nm="Grand Piano"
V:2 bass 
V:1
 z4 z2[Q:1/4=100] [B,G][CA] | [DB]2 [DB][Ec] [DB]2 [DA][DG] | [CE]2 [EG][CE] [B,D]2 [DG]A | %3
 B2 BB d2 dB |[M:3/4] [FA]6 |[M:1/4] GA |[M:4/4] B2 BB d2 BB | [Ec]2 [Ec][Ec] [G,CE]2 [CEA]2 | %8
 [B,DG]2 [DGB][DGB] [CFA]2 [B,G][A,DF] |[M:3/4] [B,DG]6 |[M:1/4] Bc |[M:4/4] dd e2 d2 [DB][DA] | %12
 [EG]2 [CE]2 [EG]2 [DF][CE] | [B,D]2 [DG]A B2 cB | A6 Bc | d2 e2 d2 [DGB][CFA] | %16
[M:9/8] [B,G]2 [DFA] [DGB] [EGc]2- [EGc] [Ge]2 |[M:4/4] [Gd]2 [DGB]2 [CFA]2 [CFA]2 | %18
[M:3/4] [B,G]6 |] %19
V:2
 z4 z2 [G,,G,][G,,G,] | [G,,G,]2 [G,,G,][G,,G,] [G,,G,]2 [A,,F,][B,,G,] | %2
 [C,G,]2 [C,G,][C,G,] [G,,G,]2 [B,,G,][D,F,D] | [G,D]2 [G,D][G,D] [G,B,D]2 [G,B,D][G,DG] | %4
[M:3/4][K:bass] [D,D]6 |[M:1/4] [G,B,][K:treble][G,CG] | %6
[M:4/4] [G,DG]2 [G,DG][G,DG] [G,B,G]2 [G,D][G,=F] | [C,G,]2 [C,G,][C,G,] C,2 C,2 | %8
 D,2 D,D, D,2 D,D, |[M:3/4] G,,6 |[M:1/4][K:treble] [G,D][G,A,D] | %11
[M:4/4] [G,B,G][G,B,G] [G,CG]2 [G,B,G]2[K:bass] [G,,G,][B,,G,] | %12
 [C,G,]2 [C,G,]2 [C,G,]2 [C,G,][C,G,] | [D,G,]2 [B,,G,][D,F,D] [G,D]2 [F,A,D][G,D] | %14
 [D,F,D]6[K:treble] [G,D][G,A,D] | [G,B,G]2 [G,CG]2 [G,B,G]2[K:bass] D,D, | %16
[M:9/8] E,2 D, G, C,2- C, [C,C]2 |[M:4/4] [D,B,]2 D,2 D,2 D,2 |[M:3/4] G,,6 |] %19

